src/icons/hds/ui/wifi.svg

<svg xmlns="http://www.w3.org/2000/svg" width="24" height="24" viewBox="0 0 24 24">
  <g fill="none" fill-rule="evenodd">
    <rect width="24" height="24"/>
    <path fill="currentColor" d="M12,17.5338354 C12.8284271,17.5338354 13.5,18.2054082 13.5,19.0338354 C13.5,19.8622625 12.8284271,20.5338354 12,20.5338354 C11.1715729,20.5338354 10.5,19.8622625 10.5,19.0338354 C10.5,18.2054082 11.1715729,17.5338354 12,17.5338354 Z M16.1404214,15.5228594 L16.2516758,15.6315208 L14.8374622,17.0457344 C13.2089625,15.4172347 10.6706267,15.3288115 9.11001538,16.7932524 L9.02273578,16.8778038 L7.60852221,15.4635902 C9.92085496,13.1512575 13.7088209,13.2034039 16.1404214,15.5228594 Z M19.265876,12.3712848 L19.3899021,12.4932944 L17.9756886,13.907508 C14.7280343,10.6598536 9.48052346,10.6266047 6.17967342,13.8055246 L6.06398755,13.9190556 L4.64977399,12.504842 C8.68191837,8.47269764 15.1893793,8.42636515 19.265876,12.3712848 Z M22.3528507,9.18260732 L22.5281285,9.35506802 L21.113915,10.7692816 C16.1384633,5.79382989 8.10257576,5.74407538 3.06591535,10.620018 L2.91421356,10.7692816 L1.5,9.35506802 C7.24868978,3.60637823 16.5334397,3.54889134 22.3528507,9.18260732 Z"/>
  </g>
</svg>

<svg viewBox="0 0 24 24" role="img" xmlns="http://www.w3.org/2000/svg"><g fill="none" fill-rule="evenodd"><path d="M0 0h24v24H0z"/><path d="M12 17.534a1.5 1.5 0 110 3 1.5 1.5 0 010-3zm4.14-2.011l.112.109-1.415 1.414c-1.628-1.629-4.166-1.717-5.727-.253l-.087.085-1.414-1.414c2.312-2.313 6.1-2.26 8.531.059zm3.126-3.152l.124.122-1.414 1.415c-3.248-3.248-8.495-3.281-11.796-.102l-.116.113-1.414-1.414c4.032-4.032 10.54-4.079 14.616-.134zm3.087-3.188l.175.172-1.414 1.414C16.138 5.794 8.103 5.744 3.066 10.62l-.152.15L1.5 9.354c5.749-5.749 15.033-5.806 20.853-.172z" fill="currentColor"/></g></svg>
